src/assets/logo.svg

<?xml version="1.0" encoding="UTF-8" standalone="no"?>
<svg width="311px" height="119px" viewBox="0 0 311 119" version="1.1" xmlns="http://www.w3.org/2000/svg" xmlns:xlink="http://www.w3.org/1999/xlink">
    <defs>
        <linearGradient x1="24.7825387%" y1="23.6255871%" x2="100%" y2="106.2669%" id="linearGradient-1">
            <stop stop-color="#7AA6DA" offset="0%"></stop>
            <stop stop-color="#C397D8" offset="100%"></stop>
        </linearGradient>
        <linearGradient x1="24.7825387%" y1="16.6398196%" x2="100%" y2="121.170264%" id="linearGradient-2">
            <stop stop-color="#B9CA4A" offset="0%"></stop>
            <stop stop-color="#E78C45" offset="100%"></stop>
        </linearGradient>
    </defs>
    <g stroke="none" stroke-width="1" fill="none" fill-rule="evenodd">
        <g transform="translate(-10.000000, -23.000000)">
            <g>
                <g transform="translate(74.358368, 73.831632) rotate(21.000000) translate(-74.358368, -73.831632) translate(17.358368, 16.831632)">
                    <path d="M95.8290817,109.248263 C95.8290806,109.248265 6.43764918,86.9434058 6.43764904,86.9434011 C6.43764888,86.943396 73.426708,8.68937027 73.4267101,8.6893703 C73.4267125,8.68937033 95.8290828,109.248262 95.8290817,109.248263 Z M75.6972864,5.1143354 L75.0446426,2.18618647 L73.0937098,4.46519083 L2.56794316,86.8506643 L0.989605299,88.6944176 L3.3445625,89.2815744 L97.4632479,112.747998 L99.8182051,113.335155 L99.2902053,110.966233 L75.6972864,5.1143354 L75.6972864,5.1143354 L75.6972864,5.1143354 Z" fill="url(#linearGradient-1)"></path>
                    <path d="M108.589664,99.4998297 C108.589665,99.5063406 16.4303911,99.4933189 16.4303913,99.4933192 C16.4303914,99.4933196 62.5151256,7.32385471 62.5151236,7.32385471 C62.5151215,7.32385471 108.589662,99.4933188 108.589664,99.4998297 Z M63.8416408,3.32917961 L62.5,0.645898034 L61.1583592,3.32917961 L12.6583592,100.32918 L11.572949,102.5 L14,102.5 L111,102.5 L113.427051,102.5 L112.341641,100.32918 L63.8416408,3.32917961 L63.8416408,3.32917961 L63.8416408,3.32917961 Z" fill="url(#linearGradient-2)"></path>
                </g>
                <path d="M26.6976783,94 L26.6976783,66.2441406 L30.1605689,66.2441406 L30.1605689,94 L26.6976783,94 L26.6976783,94 Z M51.0961158,93.3847656 C48.7757917,94.0878941 46.7894835,94.4394531 45.1371314,94.4394531 C42.3246174,94.4394531 40.030695,93.5048922 38.2552955,91.6357422 C36.479896,89.7665922 35.5922096,87.3437649 35.5922096,84.3671875 C35.5922096,81.4726418 36.3744283,79.0996186 37.9388893,77.2480469 C39.5033502,75.3964751 41.5043068,74.4707031 43.9418189,74.4707031 C46.2504242,74.4707031 48.0345861,75.2910074 49.294358,76.9316406 C50.5541299,78.5722738 51.1840064,80.9042818 51.1840064,83.9277344 L51.1664283,85 L39.1254127,85 C39.6293215,89.5351789 41.8500024,91.8027344 45.7875221,91.8027344 C47.2289355,91.8027344 48.9984491,91.4160195 51.0961158,90.6425781 L51.0961158,93.3847656 L51.0961158,93.3847656 Z M39.2836158,82.3984375 L47.7035377,82.3984375 C47.7035377,78.8476385 46.3793322,77.0722656 43.7308814,77.0722656 C41.0707119,77.0722656 39.5883048,78.8476385 39.2836158,82.3984375 L39.2836158,82.3984375 L39.2836158,82.3984375 Z M67.0043189,91.5742188 C64.9300898,93.4843846 62.9320629,94.4394531 61.0101783,94.4394531 C59.4281392,94.4394531 58.1156523,93.9443409 57.0726783,92.9541016 C56.0297044,91.9638622 55.5082252,90.7128982 55.5082252,89.2011719 C55.5082252,87.1152239 56.384193,85.5127009 58.1361549,84.3935547 C59.8881168,83.2744085 62.3988338,82.7148438 65.6683814,82.7148438 L66.4945533,82.7148438 L66.4945533,80.4121094 C66.4945533,78.1972546 65.3578459,77.0898438 63.0843971,77.0898438 C61.2562629,77.0898438 59.2816733,77.6523381 57.1605689,78.7773438 L57.1605689,75.9121094 C59.4926119,74.9628859 61.6781369,74.4882812 63.7172096,74.4882812 C65.8500327,74.4882812 67.4232592,74.9687452 68.4369361,75.9296875 C69.4506131,76.8906298 69.9574439,78.3847555 69.9574439,80.4121094 L69.9574439,89.0605469 C69.9574439,91.0410255 70.5668128,92.03125 71.7855689,92.03125 C71.9379135,92.03125 72.1605675,92.0078127 72.4535377,91.9609375 L72.6996314,93.8769531 C71.9144713,94.251955 71.0472924,94.4394531 70.0980689,94.4394531 C68.4808734,94.4394531 67.4496337,93.4843846 67.0043189,91.5742188 L67.0043189,91.5742188 L67.0043189,91.5742188 Z M66.4945533,89.6933594 L66.4945533,84.7539062 L65.3343971,84.71875 C63.4359501,84.71875 61.9008092,85.079098 60.7289283,85.7998047 C59.5570475,86.5205114 58.9711158,87.466791 58.9711158,88.6386719 C58.9711158,89.4707073 59.2640816,90.1738253 59.8500221,90.7480469 C60.4359625,91.3222685 61.1507991,91.609375 61.9945533,91.609375 C63.4359668,91.609375 64.9359518,90.9707095 66.4945533,89.6933594 L66.4945533,89.6933594 L66.4945533,89.6933594 Z M77.0414283,94 L77.0414283,74.9101562 L80.5043189,74.9101562 L80.5043189,78.4960938 C81.8754195,75.8242054 83.8675871,74.4882812 86.4808814,74.4882812 C86.8324457,74.4882812 87.2015826,74.5175778 87.5883033,74.5761719 L87.5883033,77.8105469 C86.9906441,77.6113271 86.4633056,77.5117188 86.0062721,77.5117188 C83.8148549,77.5117188 81.9808888,78.812487 80.5043189,81.4140625 L80.5043189,94 L77.0414283,94 L77.0414283,94 Z M91.7718971,94 L91.7718971,74.9101562 L95.2347877,74.9101562 L95.2347877,78.4960938 C97.0629218,75.8242054 99.3011807,74.4882812 101.949631,74.4882812 C103.601983,74.4882812 104.92033,75.0126901 105.90471,76.0615234 C106.889089,77.1103568 107.381272,78.5195224 107.381272,80.2890625 L107.381272,94 L103.918381,94 L103.918381,81.4140625 C103.918381,79.9960867 103.710376,78.9853546 103.294358,78.3818359 C102.87834,77.7783173 102.189871,77.4765625 101.228928,77.4765625 C99.107824,77.4765625 97.1097971,78.8652205 95.2347877,81.6425781 L95.2347877,94 L91.7718971,94 L91.7718971,94 Z M127.191819,84.0507812 L122.762131,72.8359375 L118.314866,84.0507812 L127.191819,84.0507812 L127.191819,84.0507812 Z M131.094163,94 L128.264085,86.7929688 L117.2426,86.7929688 L114.377366,94 L110.949631,94 L121.267991,67.984375 L124.924241,67.984375 L135.084397,94 L131.094163,94 L131.094163,94 Z M144.014085,94.4394531 C142.432045,94.4394531 140.51019,94.0703162 138.24846,93.3320312 L138.24846,90.1503906 C140.51019,91.2753963 142.47892,91.8378906 144.15471,91.8378906 C145.150808,91.8378906 145.976972,91.5683621 146.633225,91.0292969 C147.289478,90.4902317 147.6176,89.8164103 147.6176,89.0078125 C147.6176,87.8242128 146.697688,86.845707 144.857835,86.0722656 L142.83635,85.2109375 C139.848054,83.9687438 138.353928,82.1816523 138.353928,79.8496094 C138.353928,78.1855386 138.94279,76.8759813 140.12053,75.9208984 C141.29827,74.9658155 142.912512,74.4882812 144.963303,74.4882812 C146.029715,74.4882812 147.348061,74.6347642 148.918381,74.9277344 L149.639085,75.0683594 L149.639085,77.9511719 C147.705481,77.3769503 146.17034,77.0898438 145.033616,77.0898438 C142.807042,77.0898438 141.693772,77.8984294 141.693772,79.515625 C141.693772,80.558599 142.537514,81.4374964 144.225022,82.1523438 L145.894944,82.8554688 C147.781672,83.6523477 149.117596,84.4931596 149.902756,85.3779297 C150.687917,86.2626997 151.080491,87.3671809 151.080491,88.6914062 C151.080491,90.3671959 150.418388,91.7441352 149.094163,92.8222656 C147.769937,93.900396 146.076595,94.4394531 144.014085,94.4394531 L144.014085,94.4394531 L144.014085,94.4394531 Z M162.822678,94 L162.822678,83.1367188 L154.139085,67.984375 L158.357835,67.984375 L165.107835,79.7265625 L172.385178,67.984375 L175.812913,67.984375 L166.514085,83.0664062 L166.514085,94 L162.822678,94 L162.822678,94 Z M187.203538,94.4394531 C184.473055,94.4394531 182.29339,93.5341887 180.664475,91.7236328 C179.035561,89.9130769 178.221116,87.4902496 178.221116,84.4550781 C178.221116,81.3847503 179.03849,78.9560636 180.673264,77.1689453 C182.308038,75.381827 184.525789,74.4882812 187.326585,74.4882812 C190.12738,74.4882812 192.345131,75.381827 193.979905,77.1689453 C195.614679,78.9560636 196.432053,81.3730316 196.432053,84.4199219 C196.432053,87.537125 195.611749,89.9863192 193.971116,91.7675781 C192.330483,93.548837 190.074646,94.4394531 187.203538,94.4394531 L187.203538,94.4394531 L187.203538,94.4394531 Z M187.256272,91.8378906 C190.924259,91.8378906 192.758225,89.3652591 192.758225,84.4199219 C192.758225,79.5331787 190.947696,77.0898438 187.326585,77.0898438 C183.717192,77.0898438 181.912522,79.5448973 181.912522,84.4550781 C181.912522,89.3769777 183.693754,91.8378906 187.256272,91.8378906 L187.256272,91.8378906 L187.256272,91.8378906 Z M213.781663,94 L213.781663,90.4140625 C211.94181,93.0976697 209.70941,94.4394531 207.084397,94.4394531 C205.420326,94.4394531 204.096121,93.9150443 203.111741,92.8662109 C202.127361,91.8173776 201.635178,90.4023527 201.635178,88.6210938 L201.635178,74.9101562 L205.098069,74.9101562 L205.098069,87.4960938 C205.098069,88.9257884 205.306075,89.9423798 205.722092,90.5458984 C206.13811,91.1494171 206.832439,91.4511719 207.8051,91.4511719 C209.914486,91.4511719 211.906653,90.0625139 213.781663,87.2851562 L213.781663,74.9101562 L217.244553,74.9101562 L217.244553,94 L213.781663,94 L213.781663,94 Z M230.269944,94 L230.269944,70.7441406 L221.041428,70.7441406 L221.041428,67.984375 L243.189866,67.984375 L243.189866,70.7441406 L233.96135,70.7441406 L233.96135,94 L230.269944,94 L230.269944,94 Z M260.943772,93.3847656 C258.623448,94.0878941 256.63714,94.4394531 254.984788,94.4394531 C252.172274,94.4394531 249.878351,93.5048922 248.102952,91.6357422 C246.327552,89.7665922 245.439866,87.3437649 245.439866,84.3671875 C245.439866,81.4726418 246.222085,79.0996186 247.786546,77.2480469 C249.351006,75.3964751 251.351963,74.4707031 253.789475,74.4707031 C256.09808,74.4707031 257.882242,75.2910074 259.142014,76.9316406 C260.401786,78.5722738 261.031663,80.9042818 261.031663,83.9277344 L261.014085,85 L248.973069,85 C249.476978,89.5351789 251.697659,91.8027344 255.635178,91.8027344 C257.076592,91.8027344 258.846105,91.4160195 260.943772,90.6425781 L260.943772,93.3847656 L260.943772,93.3847656 Z M249.131272,82.3984375 L257.551194,82.3984375 C257.551194,78.8476385 256.226988,77.0722656 253.578538,77.0722656 C250.918368,77.0722656 249.435961,78.8476385 249.131272,82.3984375 L249.131272,82.3984375 L249.131272,82.3984375 Z M276.851975,91.5742188 C274.777746,93.4843846 272.779719,94.4394531 270.857835,94.4394531 C269.275795,94.4394531 267.963309,93.9443409 266.920335,92.9541016 C265.877361,91.9638622 265.355881,90.7128982 265.355881,89.2011719 C265.355881,87.1152239 266.231849,85.5127009 267.983811,84.3935547 C269.735773,83.2744085 272.24649,82.7148438 275.516038,82.7148438 L276.34221,82.7148438 L276.34221,80.4121094 C276.34221,78.1972546 275.205502,77.0898438 272.932053,77.0898438 C271.103919,77.0898438 269.12933,77.6523381 267.008225,78.7773438 L267.008225,75.9121094 C269.340268,74.9628859 271.525793,74.4882812 273.564866,74.4882812 C275.697689,74.4882812 277.270915,74.9687452 278.284592,75.9296875 C279.298269,76.8906298 279.8051,78.3847555 279.8051,80.4121094 L279.8051,89.0605469 C279.8051,91.0410255 280.414469,92.03125 281.633225,92.03125 C281.78557,92.03125 282.008224,92.0078127 282.301194,91.9609375 L282.547288,93.8769531 C281.762128,94.251955 280.894949,94.4394531 279.945725,94.4394531 C278.32853,94.4394531 277.29729,93.4843846 276.851975,91.5742188 L276.851975,91.5742188 L276.851975,91.5742188 Z M276.34221,89.6933594 L276.34221,84.7539062 L275.182053,84.71875 C273.283606,84.71875 271.748465,85.079098 270.576585,85.7998047 C269.404704,86.5205114 268.818772,87.466791 268.818772,88.6386719 C268.818772,89.4707073 269.111738,90.1738253 269.697678,90.7480469 C270.283619,91.3222685 270.998455,91.609375 271.84221,91.609375 C273.283623,91.609375 274.783608,90.9707095 276.34221,89.6933594 L276.34221,89.6933594 L276.34221,89.6933594 Z M294.34221,94.4394531 C291.764072,94.4394531 289.625421,93.4843846 287.926194,91.5742188 C286.226967,89.6640529 285.377366,87.2558739 285.377366,84.3496094 C285.377366,81.2441251 286.218178,78.8242274 287.899827,77.0898438 C289.581476,75.3554601 291.928132,74.4882812 294.939866,74.4882812 C296.428155,74.4882812 298.0922,74.6933573 299.932053,75.1035156 L299.932053,78.0039062 C297.975012,77.4296846 296.381278,77.1425781 295.150803,77.1425781 C293.381263,77.1425781 291.960379,77.8076105 290.888108,79.1376953 C289.815837,80.4677801 289.27971,82.2402233 289.27971,84.4550781 C289.27971,86.5996201 289.830485,88.3339778 290.932053,89.6582031 C292.033621,90.9824285 293.475013,91.6445312 295.256272,91.6445312 C296.838311,91.6445312 298.467201,91.2402384 300.142991,90.4316406 L300.142991,93.4199219 C297.904698,94.0996128 295.971124,94.4394531 294.34221,94.4394531 L294.34221,94.4394531 L294.34221,94.4394531 Z M305.328538,94 L305.328538,66.2441406 L308.791428,66.2441406 L308.791428,78.4960938 C310.619562,75.8242054 312.857821,74.4882812 315.506272,74.4882812 C317.158624,74.4882812 318.47697,75.0126901 319.46135,76.0615234 C320.44573,77.1103568 320.937913,78.5195224 320.937913,80.2890625 L320.937913,94 L317.475022,94 L317.475022,81.4140625 C317.475022,79.9960867 317.267016,78.9853546 316.850999,78.3818359 C316.434981,77.7783173 315.746511,77.4765625 314.785569,77.4765625 C312.664465,77.4765625 310.666438,78.8652205 308.791428,81.6425781 L308.791428,94 L305.328538,94 L305.328538,94 Z" fill="#1A1A1A"></path>
            </g>
        </g>
    </g>
</svg>

<svg width="311" height="119" xmlns="http://www.w3.org/2000/svg">
  <defs>
    <linearGradient x1="24.783%" y1="23.626%" y2="106.267%" id="a">
      <stop stop-color="#7AA6DA" offset="0%"/>
      <stop stop-color="#C397D8" offset="100%"/>
    </linearGradient>
    <linearGradient x1="24.783%" y1="16.64%" y2="121.17%" id="b">
      <stop stop-color="#B9CA4A" offset="0%"/>
      <stop stop-color="#E78C45" offset="100%"/>
    </linearGradient>
  </defs>
  <g fill="none" fill-rule="evenodd">
    <path d="M95.83 109.248L6.437 86.943 73.427 8.69l22.402 100.56zM75.696 5.114l-.652-2.928-1.951 2.28L2.568 86.85.99 88.694l2.355.588 94.118 23.466 2.355.587-.528-2.369L75.697 5.114z" fill="url(#a)" transform="rotate(21 77.32 73.767)"/>
    <path d="M108.59 99.5c0 .006-92.16-.007-92.16-.007l46.085-92.17S108.59 99.494 108.59 99.5zM63.842 3.33L62.5.645l-1.342 2.683-48.5 97-1.085 2.171H113.427l-1.085-2.17-48.5-97z" fill="url(#b)" transform="rotate(21 77.32 73.767)"/>
  </g>
</svg>
